src/img/mail_icon.svg

<svg xmlns="http://www.w3.org/2000/svg" width="19" height="15" fill="none">
  <path fill="#282828" stroke="#282828" stroke-width=".5" d="M16.7734.820312H2.22656c-.59052 0-1.15685.234588-1.574415.652148C.234584 1.89002 0 2.45635 0 3.04688v8.90622c0 .5905.234584 1.1569.652145 1.5744.417565.4176.983895.6522 1.574415.6522H16.7734c.5906 0 1.1569-.2346 1.5745-.6522.4175-.4175.6521-.9839.6521-1.5744V3.04688c0-.59053-.2346-1.15686-.6521-1.57442-.4176-.41756-.9839-.652148-1.5745-.652148Zm1.336 11.132788c0 .3543-.1408.6941-.3913.9447-.2505.2505-.5903.3913-.9447.3913H2.22656c-.35431 0-.69411-.1408-.94465-.3913-.25053-.2506-.391285-.5904-.391285-.9447V3.04688c0-.35432.140755-.69412.391285-.94466.25054-.25053.59034-.39128.94465-.39128H16.7734c.3544 0 .6942.14075.9447.39128.2505.25054.3913.59034.3913.94466v8.90622Z"/>
</svg>

<svg width="19" height="15" viewBox="0 0 19 15" fill="none" xmlns="http://www.w3.org/2000/svg">
<path d="M16.7734 0.820312H2.22656C1.63604 0.820312 1.06971 1.0549 0.652145 1.47246C0.234584 1.89002 0 2.45635 0 3.04688L0 11.9531C0 12.5436 0.234584 13.11 0.652145 13.5275C1.06971 13.9451 1.63604 14.1797 2.22656 14.1797H16.7734C17.364 14.1797 17.9303 13.9451 18.3479 13.5275C18.7654 13.11 19 12.5436 19 11.9531V3.04688C19 2.45635 18.7654 1.89002 18.3479 1.47246C17.9303 1.0549 17.364 0.820312 16.7734 0.820312ZM18.1094 11.9531C18.1094 12.3074 17.9686 12.6472 17.7181 12.8978C17.4676 13.1483 17.1278 13.2891 16.7734 13.2891H2.22656C1.87225 13.2891 1.53245 13.1483 1.28191 12.8978C1.03138 12.6472 0.890625 12.3074 0.890625 11.9531V3.04688C0.890625 2.69256 1.03138 2.35276 1.28191 2.10222C1.53245 1.85169 1.87225 1.71094 2.22656 1.71094H16.7734C17.1278 1.71094 17.4676 1.85169 17.7181 2.10222C17.9686 2.35276 18.1094 2.69256 18.1094 3.04688V11.9531Z" fill="#282828" stroke="#282828" stroke-width="0.5"/>
</svg>
